X: 1007
T: Allistrum's March
R: jig
M: 6/8
K: Dmixolydian
|:B2G AGF|G2g fdc|B2G AGF|Ggf d2c|
B2G AGF|G2g fdc|~B3 cBc|1 dgf dcA:|2 dgf d3||
|:Aff Agg|age fdc|Aff Agg|agf d2c|
Aff Agg|bag fde|fdf gfg|1 agf d2c:|2 agf dcA||

